X:673
T:Polska e. Pekkos Olof Hansson
R:Bingsj\"opolska
C:trad
N:original url: www.wolfram.claranet.de
A:Bingsj\"o, Dalarna
O:Sweden
M:3/4
L:1/16
Q:390
K:Dm
D-EFG A4 d4 | A2BA G2AG F2AF | D2d2 {g}f2ef g-fed | ^c2a2 a-gec A3F |
D-EFG A4 d4 | A2BA G2AG F2AF | D2f2 {g}f2ef g-fe^c | a-ge^c d8 ::
A2df a2ba g4 | A2^ce g-age f4 | f-afd e-ge^c {^c}d2eg | {g}f2ed d-^ce-c A2A2- |
A2df a2ba g4 | A2^ce g-age {e}f4 | f-afd e-ge^c {^c}d4 | {f}e-d^ce d8 :|
